ukui-icon-theme-default/scalable/apps/comix.svg

<svg id="图层_1" data-name="图层 1" xmlns="http://www.w3.org/2000/svg" viewBox="0 0 128 128"><defs><style>.cls-1{fill:#8bc34a;}.cls-2{fill:#fff;}.cls-3{fill:#dcedc8;}.cls-4{fill:#999;}.cls-5{fill:#263238;}.cls-6{fill:#324249;}</style></defs><title>comix128</title><circle class="cls-1" cx="64" cy="66.74" r="56.26"/><circle cx="29.86" cy="72.6" r="6.45"/><circle class="cls-2" cx="29.86" cy="69.38" r="2.05"/><circle cx="98.14" cy="72.6" r="6.45"/><circle class="cls-2" cx="98.14" cy="69.38" r="2.05"/><path class="cls-3" d="M33.82,89.6v.54a10.35,10.35,0,0,0,6.54,9.62v3.31H39A10.35,10.35,0,0,1,28.64,92.72V89.6Z"/><path class="cls-4" d="M33.82,90.14V89.6h6.54V99.76A10.35,10.35,0,0,1,33.82,90.14Z"/><path class="cls-3" d="M94.18,89.6v.54a10.35,10.35,0,0,1-6.54,9.62v3.31H89A10.35,10.35,0,0,0,99.36,92.72V89.6Z"/><path class="cls-4" d="M94.18,90.14V89.6H87.64V99.76A10.35,10.35,0,0,0,94.18,90.14Z"/><rect x="20.05" y="89.6" width="87.91" height="2.34"/><path class="cls-5" d="M19.58,13.63S26.63,22.5,34.21,25c0,0,.19.42.41,1.08a14.74,14.74,0,0,0,0-3.84C23.46,17.81,16.34,5,16.34,5c-6.06,7.24,8.15,31.57,13.87,28.32a7.48,7.48,0,0,0,.86-.56C26.19,29.44,18,18.1,19.58,13.63Z"/><path class="cls-6" d="M34.62,26.05c-.22-.66-.41-1.08-.41-1.08C26.63,22.5,19.58,13.63,19.58,13.63,18,18.1,26.19,29.44,31.07,32.76A9.62,9.62,0,0,0,34.62,26.05Z"/><path class="cls-5" d="M108.42,13.63s-7,8.87-14.63,11.34c0,0-.19.42-.41,1.08a14.74,14.74,0,0,1,0-3.84C104.54,17.81,111.66,5,111.66,5c6.06,7.24-8.15,31.57-13.87,28.32a7.48,7.48,0,0,1-.86-.56C101.81,29.44,110,18.1,108.42,13.63Z"/><path class="cls-6" d="M93.38,26.05c.22-.66.41-1.08.41-1.08,7.58-2.47,14.63-11.34,14.63-11.34,1.58,4.47-6.61,15.81-11.49,19.13A9.62,9.62,0,0,1,93.38,26.05Z"/></svg>

<?xml version="1.0" encoding="utf-8"?>
<!-- Generator: Adobe Illustrator 24.0.0, SVG Export Plug-In . SVG Version: 6.00 Build 0)  -->
<svg version="1.1" id="图层_1" xmlns="http://www.w3.org/2000/svg" xmlns:xlink="http://www.w3.org/1999/xlink" x="0px" y="0px"
	 viewBox="0 0 128 128" enable-background="new 0 0 128 128" xml:space="preserve">
<title>comix128</title>
<circle fill="#8BC34A" cx="64" cy="66.7" r="56.3"/>
<circle cx="29.9" cy="72.6" r="6.4"/>
<circle fill="#FFFFFF" cx="29.9" cy="69.4" r="2.1"/>
<circle cx="98.1" cy="72.6" r="6.4"/>
<circle fill="#FFFFFF" cx="98.1" cy="69.4" r="2.1"/>
<path fill="#DCEDC8" d="M33.8,89.6v0.5c0,4.2,2.6,8.1,6.5,9.6v3.3H39c-5.7,0-10.4-4.6-10.4-10.3l0,0v-3.1H33.8z"/>
<path fill="#999999" d="M33.8,90.1v-0.5h6.5v10.2C36.4,98.2,33.8,94.4,33.8,90.1z"/>
<path fill="#DCEDC8" d="M94.2,89.6v0.5c0,4.2-2.6,8.1-6.5,9.6v3.3H89c5.7,0,10.4-4.6,10.4-10.3l0,0v-3.1H94.2z"/>
<path fill="#999999" d="M94.2,90.1v-0.5h-6.5v10.2C91.6,98.2,94.2,94.4,94.2,90.1z"/>
<rect x="20" y="89.6" width="87.9" height="2.3"/>
<path fill="#263238" d="M19.6,13.6c0,0,7,8.9,14.6,11.4c0,0,0.2,0.4,0.4,1.1c0.2-1.3,0.2-2.6,0-3.8C23.5,17.8,16.3,5,16.3,5
	c-6.1,7.2,8.1,31.6,13.9,28.3c0.3-0.2,0.6-0.4,0.9-0.6C26.2,29.4,18,18.1,19.6,13.6z"/>
<path fill="#324249" d="M34.6,26c-0.2-0.7-0.4-1.1-0.4-1.1c-7.6-2.5-14.6-11.3-14.6-11.3c-1.6,4.5,6.6,15.8,11.5,19.1
	C33.1,31.1,34.4,28.7,34.6,26z"/>
<path fill="#263238" d="M108.4,13.6c0,0-7,8.9-14.6,11.3c0,0-0.2,0.4-0.4,1.1c-0.2-1.3-0.2-2.6,0-3.8C104.5,17.8,111.7,5,111.7,5
	c6.1,7.2-8.2,31.6-13.9,28.3c-0.3-0.2-0.6-0.4-0.9-0.6C101.8,29.4,110,18.1,108.4,13.6z"/>
<path fill="#324249" d="M93.4,26c0.2-0.7,0.4-1.1,0.4-1.1c7.6-2.5,14.6-11.3,14.6-11.3c1.6,4.5-6.6,15.8-11.5,19.1
	C94.9,31.1,93.6,28.7,93.4,26z"/>
</svg>
